usr/share/icons/biglinux-icons-material/24/actions/labplot-plot-axis-points.svg

<svg xmlns="http://www.w3.org/2000/svg" viewBox="0 0 24 24"><path d="M4 5v11h1V5Zm2 12v1h10v-1z" style="fill:currentColor;fill-opacity:1;stroke:none;color:#dedede" transform="translate(1 1)"/><path d="M3 2v3h3V2H3zm1 1h1v1H4V3zM3 16v3h3v-3H3zm13 0v3h3v-3h-3zM4 17h1v1H4v-1zm13 0h1v1h-1v-1z" style="fill:currentColor;fill-opacity:1;stroke:none;color:#3daee9" transform="translate(1 1)"/></svg>

<svg xmlns="http://www.w3.org/2000/svg" viewBox="0 0 24 24">
  <defs id="defs3051">
    <style type="text/css" id="current-color-scheme">
      .ColorScheme-Text {
        color:#363636;
      }
      .ColorScheme-Highlight {
        color:#3daee9;
      }
      </style>
  </defs><g transform="translate(1,1)">
 <path 
     style="fill:currentColor;fill-opacity:1;stroke:none" 
     d="M 4,5 4,16 5,16 5,5 Z m 2,12 0,1 10,0 0,-1 z"
     class="ColorScheme-Text"
     />
 <path 
     style="fill:currentColor;fill-opacity:1;stroke:none" 
     d="M 3 2 L 3 5 L 6 5 L 6 2 L 3 2 z M 4 3 L 5 3 L 5 4 L 4 4 L 4 3 z M 3 16 L 3 19 L 6 19 L 6 16 L 3 16 z M 16 16 L 16 19 L 19 19 L 19 16 L 16 16 z M 4 17 L 5 17 L 5 18 L 4 18 L 4 17 z M 17 17 L 18 17 L 18 18 L 17 18 L 17 17 z "
     class="ColorScheme-Highlight"
     />
</g></svg>
